svgs/sharp-light/turtle.svg

<svg xmlns="http://www.w3.org/2000/svg" viewBox="0 0 576 512"><!--! Font Awesome Pro 6.6.0 by @fontawesome - https://fontawesome.com License - https://fontawesome.com/license (Commercial License) Copyright 2024 Fonticons, Inc. --><path d="M200 64C124.9 64 64 124.9 64 200l0 40 0 16-32 0 0-16 0-40c0-92.8 75.2-168 168-168s168 75.2 168 168l0 40 0 16-32 0 0-16 0-40c0-75.1-60.9-136-136-136zm200 48l16 0 56 0c57.4 0 104 46.6 104 104l0 56 0 16-16 0-64 0 0 80 0 16-16 0-128 0 0 80 0 16-16 0-96 0-16 0 0-16 0-80-32 0 0 80 0 16-16 0-96 0-16 0 0-16 0-80-48 0L0 384l0-16 0-64 0-16 16 0 384 0 0-160 0-16zM256 448l64 0 0-32 0-32 0-32 144 0 0-80 0-16 16 0 64 0 0-40c0-39.8-32.2-72-72-72l-40 0 0 160 0 16-16 0-96 0-64 0-96 0-64 0-64 0 0 32 64 0 0 32 0 32 0 32 64 0 0-32 0-32 0-32 96 0 0 32 0 32 0 32zM480 192a16 16 0 1 1 0 32 16 16 0 1 1 0-32z"/></svg>

<svg xmlns="http://www.w3.org/2000/svg" viewBox="0 0 576 512"><!--! Font Awesome Pro 6.4.2 by @fontawesome - https://fontawesome.com License - https://fontawesome.com/license (Commercial License) Copyright 2023 Fonticons, Inc. --><path d="M200 64C124.9 64 64 124.9 64 200v40 16H32V240 200c0-92.8 75.2-168 168-168s168 75.2 168 168v40 16H336V240 200c0-75.1-60.9-136-136-136zm200 48h16 56c57.4 0 104 46.6 104 104v56 16H560 496v80 16H480 352v80 16H336 240 224V464 384H192v80 16H176 80 64V464 384H16 0V368 304 288H16 400V128 112zM256 448h64V416 384 352H464V272 256h16 64V216c0-39.8-32.2-72-72-72H432V304v16H416 320 256 160 96 32v32H96v32 32 32h64V416 384 352h96v32 32 32zM480 192a16 16 0 1 1 0 32 16 16 0 1 1 0-32z"/></svg>
